X:160
T:Brunswick Waltz,The. JGi.160
M:3/8
L:1/8
Q:3/8=60
S:Joshua Gibbons MS,1823,Tealby,Lincs.
R:waltz
O:Tealby,Lincolnshire
Z:VMP/R.Greig, 2009
K:F
F/G/|AAB|c2f/d/|cc d/c/|AA F/G/|AAB|c2f|gg/f/g/a/|f2:|
|:c|bbc|aaf|ee/g/f/a/|ggc|bbc|aaf|ge/c/d/e/|f2:|
|:A/B/|ccd|cc A/c/|BB G/B/|GE A/B/|ccd|ccf|gg/f/g/a/|f2

